X:636
T:Braes Aboon Bonaw, The
B:Popular Songs & Melodies of Scotland, GF Graham
Z:Nigel Gatherer
M:2/4
L:1/8
K:D
     D>F A>B | A<F A<d   | D>F A>F | F<E E<F      |
     D>F A>B | d>e ff/e/ | d>B d>F | F<E E/F     ||
A/ | d>e f>e | d<A F>A   | d>e f>d | B2  B< B/ee/ |
     d>e f>d | e>f dA    | Bd A>F  | E<D D/d     |]
